packages/foundations/assets/icons/functional/images/editing/pen_16.svg

<svg width="16" height="16" viewBox="0 0 16 16" fill="none" xmlns="http://www.w3.org/2000/svg">
<g clip-path="url(#clip0_83_266)">
<path fill-rule="evenodd" clip-rule="evenodd" d="M11.428 1.62402C11.818 1.62402 12.207 1.75402 12.492 2.01402L13.947 3.46802C14.232 3.75402 14.388 4.22102 14.388 4.66302C14.388 5.07802 14.232 5.52002 13.947 5.83102L6.597 13.129C6.338 13.363 6.13 13.441 5.715 13.545L2.573 14.35C2.495 14.376 2.417 14.376 2.339 14.376C2.131 14.376 1.949 14.298 1.846 14.168C1.70213 14.0227 1.61854 13.8284 1.612 13.624V13.494L2.391 10.351C2.547 9.78002 2.625 9.67602 2.884 9.41602L10.207 2.11802C10.545 1.78102 10.987 1.62502 11.427 1.62502L11.428 1.62402ZM9.142 5.46802L4.468 10.064L5.897 11.518L10.571 6.89502L9.142 5.46802ZM11.401 3.18202L10.258 4.32502L11.712 5.77902L12.855 4.63702L11.401 3.18202Z" fill="#1A1C1F"/>
</g>
<defs>
<clipPath id="clip0_83_266">
<rect width="16" height="16" fill="white"/>
</clipPath>
</defs>
</svg>

<svg xmlns="http://www.w3.org/2000/svg" width="16" height="16" fill="none"><g clip-path="url(#a)"><path fill="#1A1C1F" fill-rule="evenodd" d="M11.428 1.624c.39 0 .779.13 1.064.39l1.455 1.454c.285.286.441.753.441 1.195 0 .415-.156.857-.441 1.168l-7.35 7.298c-.259.234-.467.312-.882.416l-3.142.805c-.078.026-.156.026-.234.026-.208 0-.39-.078-.493-.208a.8.8 0 0 1-.234-.544v-.13l.779-3.143c.156-.571.234-.675.493-.935l7.323-7.298c.338-.337.78-.493 1.22-.493zM9.142 5.468l-4.674 4.596 1.429 1.454 4.674-4.623zm2.259-2.286-1.143 1.143 1.454 1.454 1.143-1.142z" clip-rule="evenodd"/></g><defs><clipPath id="a"><path fill="#fff" d="M0 0h16v16H0z"/></clipPath></defs></svg>
